src/xmb/monochrome/Microsoft - Xbox (Development Kit Hard Drives).svg

<svg xmlns="http://www.w3.org/2000/svg" xml:space="preserve" viewBox="0 0 64 64"><style>.st0{fill:#fff}</style><path d="M58.94 38.6c-.05-.89-.17-1.77-.38-2.63-.97-4.08-4.29-17.74-5.83-19.32 0 0-5.45-4.65-10.99-4.65 0 0-5.57 1.86-9.26 1.86S23.29 12 23.29 12c-5.53 0-11.15 4.65-11.15 4.65-1.59 1.58-5.39 15.24-6.5 19.32-.23.86-.39 1.74-.47 2.63C4.83 42.36 4.49 52 9.68 52c6.46 0 9.4-10.23 9.4-10.23s15.74-3.72 25.83 0c0 0 2.59 10.23 9.05 10.23 5.19 0 5.18-9.64 4.98-13.4M11.47 31c-.83 0-1.49-.67-1.47-1.5s.7-1.5 1.53-1.5 1.49.67 1.47 1.5c-.01.83-.7 1.5-1.53 1.5m4 4c-.83 0-1.49-.67-1.47-1.5s.7-1.5 1.53-1.5 1.49.67 1.47 1.5c-.01.83-.7 1.5-1.53 1.5m1.97-7c-1.93 0-3.47-1.57-3.44-3.5s1.63-3.5 3.56-3.5 3.47 1.57 3.44 3.5-1.63 3.5-3.56 3.5M23 36.88A3.89 3.89 0 0 1 20.13 34H23zM23 32h-2.84A4.09 4.09 0 0 1 23 29.16zm25.03-15c1.1 0 1.98.9 1.96 2s-.93 2-2.03 2-1.98-.9-1.96-2 .94-2 2.03-2M25 36.84V34h2.84A4.09 4.09 0 0 1 25 36.84M25 32v-2.88c1.42.34 2.53 1.46 2.87 2.88zm6.91-4c-2.76 0-4.96-2.24-4.91-5s2.33-5 5.09-5 4.96 2.24 4.91 5-2.33 5-5.09 5m9.03 8c-1.93 0-3.47-1.57-3.44-3.5s1.63-3.5 3.56-3.5 3.47 1.57 3.44 3.5-1.63 3.5-3.56 3.5m3.02-11c-1.1 0-1.98-.9-1.96-2s.94-2 2.03-2c1.1 0 1.98.9 1.97 2-.02 1.1-.94 2-2.04 2m4.57 11c-.83 0-1.51-.67-1.53-1.5-.01-.83.65-1.5 1.47-1.5s1.51.67 1.53 1.5c.01.83-.65 1.5-1.47 1.5m-.57-7c-1.1 0-1.98-.9-1.96-2s.94-2 2.03-2c1.1 0 1.98.9 1.96 2-.01 1.1-.93 2-2.03 2m4.57 3c-.83 0-1.51-.67-1.53-1.5-.01-.83.65-1.5 1.47-1.5s1.51.67 1.53 1.5c.01.83-.65 1.5-1.47 1.5m-.57-7c-1.1 0-1.98-.9-1.96-2s.94-2 2.03-2c1.1 0 1.98.9 1.97 2-.02 1.1-.94 2-2.04 2" class="st0"/><path d="M32.07 19c-2.21 0-4.03 1.79-4.07 4s1.72 4 3.93 4 4.03-1.79 4.07-4-1.72-4-3.93-4" class="st0"/></svg>

<?xml version="1.0" encoding="utf-8"?>
<svg version="1.1" xmlns="http://www.w3.org/2000/svg" xmlns:xlink="http://www.w3.org/1999/xlink" x="0px" y="0px" viewBox="0 0 64 64" style="enable-background:new 0 0 64 64;" xml:space="preserve">
<style type="text/css">
	.st0{fill:#FFFFFF;}
</style>
<g>
	<path class="st0" d="M58.94,38.6c-0.05-0.89-0.17-1.77-0.38-2.63c-0.97-4.08-4.29-17.74-5.83-19.32c0,0-5.45-4.65-10.99-4.65c0,0-5.57,1.86-9.26,1.86c-3.69,0-9.19-1.86-9.19-1.86c-5.53,0-11.15,4.65-11.15,4.65c-1.59,1.58-5.39,15.24-6.5,19.32c-0.23,0.86-0.39,1.74-0.47,2.63C4.83,42.36,4.49,52,9.68,52c6.46,0,9.4-10.23,9.4-10.23s15.74-3.72,25.83,0c0,0,2.59,10.23,9.05,10.23C59.15,52,59.14,42.36,58.94,38.6z M11.47,31c-0.83,0-1.49-0.67-1.47-1.5c0.02-0.83,0.7-1.5,1.53-1.5c0.83,0,1.49,0.67,1.47,1.5C12.99,30.33,12.3,31,11.47,31z M15.47,35c-0.83,0-1.49-0.67-1.47-1.5c0.02-0.83,0.7-1.5,1.53-1.5c0.83,0,1.49,0.67,1.47,1.5C16.99,34.33,16.3,35,15.47,35z M17.44,28c-1.93,0-3.47-1.57-3.44-3.5c0.03-1.93,1.63-3.5,3.56-3.5c1.93,0,3.47,1.57,3.44,3.5C20.97,26.43,19.37,28,17.44,28z M23,36.88c-1.42-0.34-2.53-1.46-2.87-2.88H23V36.88z M23,32h-2.84c0.38-1.38,1.47-2.46,2.84-2.84V32z M48.03,17c1.1,0,1.98,0.9,1.96,2s-0.93,2-2.03,2s-1.98-0.9-1.96-2
		C46.02,17.9,46.94,17,48.03,17z M25,36.84V34h2.84C27.46,35.38,26.37,36.46,25,36.84z M25,32v-2.88c1.42,0.34,2.53,1.46,2.87,2.88H25zM31.91,28c-2.76,0-4.96-2.24-4.91-5c0.05-2.76,2.33-5,5.09-5c2.76,0,4.96,2.24,4.91,5C36.95,25.76,34.67,28,31.91,28zM40.94,36c-1.93,0-3.47-1.57-3.44-3.5c0.03-1.93,1.63-3.5,3.56-3.5c1.93,0,3.47,1.57,3.44,3.5C44.47,34.43,42.87,36,40.94,36zM43.96,25c-1.1,0-1.98-0.9-1.96-2c0.02-1.1,0.94-2,2.03-2c1.1,0,1.98,0.9,1.97,2C45.98,24.1,45.06,25,43.96,25z M48.53,36c-0.83,0-1.51-0.67-1.53-1.5c-0.01-0.83,0.65-1.5,1.47-1.5s1.51,0.67,1.53,1.5C50.01,35.33,49.35,36,48.53,36z M47.96,29c-1.1,0-1.98-0.9-1.96-2c0.02-1.1,0.94-2,2.03-2c1.1,0,1.98,0.9,1.96,2C49.98,28.1,49.06,29,47.96,29z M52.53,32c-0.83,0-1.51-0.67-1.53-1.5c-0.01-0.83,0.65-1.5,1.47-1.5s1.51,0.67,1.53,1.5C54.01,31.33,53.35,32,52.53,32z M51.96,25c-1.1,0-1.98-0.9-1.96-2c0.02-1.1,0.94-2,2.03-2c1.1,0,1.98,0.9,1.97,2C53.98,24.1,53.06,25,51.96,25z"/>
	<path class="st0" d="M32.07,19c-2.21,0-4.03,1.79-4.07,4c-0.04,2.21,1.72,4,3.93,4s4.03-1.79,4.07-4C36.04,20.79,34.28,19,32.07,19z"/>
</g>
</svg>
